X:1862
T:Fairy Jig, The
O:england
R:slip jig
H:See also #39
D:Altan: Altan.
M:9/8
K:Dmix
A2G Add Add|ABG Add fef|A2G Add Add|cAG A2G FED:|
|:abf add Add|a2f add bag|1 a2f add Add|abf a2g fed:|2 a2a baf abg|fed cAG FED||


